src/images/projects/spenmo/herobg.svg

<svg width="375" height="267" viewBox="0 0 375 267" fill="none" xmlns="http://www.w3.org/2000/svg">
<path opacity="0.3" d="M-319.328 142.824V141.824H-320.328V142.824H-319.328ZM-299.456 187.176L-300.112 187.931L-300.103 187.939L-299.456 187.176ZM-186.848 178.536L-187.636 177.92L-187.637 177.922L-186.848 178.536ZM-175.904 145.992L-176.904 145.962L-176.904 145.969L-175.904 145.992ZM-230.336 86.088L-230.638 87.0412L-230.625 87.0454L-230.612 87.0492L-230.336 86.088ZM-253.952 78.6L-253.65 77.6468L-253.663 77.6424L-253.677 77.6385L-253.952 78.6ZM-224 61.032H-225V62.032H-224V61.032ZM-181.952 61.032V62.032H-180.952V61.032H-181.952ZM-200.96 16.68L-201.622 17.4294L-201.614 17.4368L-200.96 16.68ZM-297.728 16.968L-297.083 17.7321L-297.073 17.7237L-297.728 16.968ZM-266.048 116.616L-266.345 117.571L-266.33 117.576L-266.315 117.58L-266.048 116.616ZM-242.144 123.24L-241.863 122.28L-241.877 122.276L-242.144 123.24ZM-218.24 145.704L-219.24 145.675L-219.24 145.681L-218.24 145.704ZM-276.992 142.824L-275.994 142.76L-276.054 141.824H-276.992V142.824ZM-320.328 142.824C-320.328 161.249 -313.585 176.215 -300.112 187.931L-298.8 186.421C-311.823 175.097 -318.328 160.687 -318.328 142.824H-320.328ZM-300.103 187.939C-286.638 199.354 -269.113 205.168 -247.328 205.168V203.168C-268.743 203.168 -285.778 197.462 -298.809 186.413L-300.103 187.939ZM-247.328 205.168C-222.655 205.168 -200.421 197.616 -186.059 179.15L-187.637 177.922C-201.499 195.744 -223.041 203.168 -247.328 203.168V205.168ZM-186.06 179.152C-178.708 169.741 -175.196 158.58 -174.904 146.015L-176.904 145.969C-177.188 158.172 -180.588 168.899 -187.636 177.92L-186.06 179.152ZM-174.904 146.022C-174.465 131.242 -178.863 118.672 -188.123 108.456C-197.362 98.264 -211.377 90.4856 -230.06 85.1268L-230.612 87.0492C-212.143 92.3464 -198.51 99.9759 -189.605 109.8C-180.721 119.6 -176.479 131.654 -176.904 145.962L-174.904 146.022ZM-230.034 85.1348L-253.65 77.6468L-254.254 79.5532L-230.638 87.0412L-230.034 85.1348ZM-253.677 77.6385C-260.654 75.6452 -265.813 73.0395 -269.215 69.8431C-272.588 66.6752 -274.264 62.9032 -274.264 58.44H-276.264C-276.264 63.4808 -274.34 67.7727 -270.585 71.3008C-266.859 74.8005 -261.362 77.5228 -254.227 79.5615L-253.677 77.6385ZM-274.264 58.44C-274.264 47.6916 -264.304 39.568 -249.632 39.568V37.568C-264.912 37.568 -276.264 46.1484 -276.264 58.44H-274.264ZM-249.632 39.568C-241.599 39.568 -235.454 41.751 -231.329 45.467C-227.216 49.1725 -225 54.5011 -225 61.032H-223C-223 54.0269 -225.392 48.1235 -229.991 43.981C-234.578 39.849 -241.249 37.568 -249.632 37.568V39.568ZM-224 62.032H-181.952V60.032H-224V62.032ZM-180.952 61.032C-180.952 42.0571 -187.389 27.0793 -200.306 15.9232L-201.614 17.4368C-189.187 28.1687 -182.952 42.5669 -182.952 61.032H-180.952ZM-200.298 15.9307C-212.899 4.79499 -229.278 -0.736008 -249.056 -0.736008V1.26399C-229.666 1.26399 -213.789 6.67699 -201.622 17.4293L-200.298 15.9307ZM-249.056 -0.736008C-268.55 -0.736008 -285.211 4.79704 -298.383 16.2123L-297.073 17.7237C-284.325 6.67494 -268.154 1.26399 -249.056 1.26399V-0.736008ZM-298.373 16.204C-311.56 27.3399 -318.312 41.7325 -318.312 59.592H-316.312C-316.312 42.3155 -309.816 28.4841 -297.083 17.732L-298.373 16.204ZM-318.312 59.592C-318.312 73.4985 -313.986 85.3341 -305.276 95.036C-296.585 104.718 -283.587 112.21 -266.345 117.571L-265.751 115.661C-282.781 110.366 -295.415 103.026 -303.788 93.7C-312.142 84.3939 -316.312 73.0455 -316.312 59.592H-318.312ZM-266.315 117.58L-242.411 124.204L-241.877 122.276L-265.781 115.652L-266.315 117.58ZM-242.425 124.2C-233.121 126.919 -227.266 129.957 -223.771 133.451C-220.33 136.892 -219.102 140.855 -219.24 145.675L-217.24 145.733C-217.09 140.473 -218.454 135.94 -222.357 132.037C-226.206 128.187 -232.447 125.033 -241.863 122.28L-242.425 124.2ZM-219.24 145.681C-219.376 151.685 -222.16 156.658 -226.998 160.158C-231.86 163.675 -238.838 165.728 -247.328 165.728V167.728C-238.538 167.728 -231.116 165.605 -225.826 161.778C-220.512 157.934 -217.392 152.395 -217.24 145.727L-219.24 145.681ZM-247.328 165.728C-256.21 165.728 -263.166 163.193 -267.992 159.09C-272.814 154.992 -275.578 149.274 -275.994 142.76L-277.99 142.888C-277.542 149.91 -274.546 156.144 -269.288 160.614C-264.034 165.079 -256.59 167.728 -247.328 167.728V165.728ZM-276.992 141.824H-319.328V143.824H-276.992V141.824ZM-153.39 266.952H-154.39V267.952H-153.39V266.952ZM-113.646 266.952V267.952H-112.646V266.952H-113.646ZM-113.646 184.584L-112.774 184.095L-114.646 180.757V184.584H-113.646ZM-28.3985 184.296L-29.1056 183.589L-29.1135 183.597L-28.3985 184.296ZM-28.3985 83.208L-29.1135 83.9072L-29.1056 83.9151L-28.3985 83.208ZM-113.646 83.208H-114.646L-112.765 83.6796L-113.646 83.208ZM-113.646 66.504H-112.646V65.504H-113.646V66.504ZM-153.39 66.504V65.504H-154.39V66.504H-153.39ZM-111.782 134.184C-111.782 115.986 -98.3767 102.64 -81.6785 102.64V100.64C-99.5403 100.64 -113.782 114.942 -113.782 134.184H-111.782ZM-81.6785 102.64C-64.9686 102.64 -51.5745 115.422 -51.5745 134.184H-49.5745C-49.5745 114.354 -63.8283 100.64 -81.6785 100.64V102.64ZM-51.5745 134.184C-51.5745 152.358 -64.9568 165.152 -81.6785 165.152V167.152C-63.8402 167.152 -49.5745 153.45 -49.5745 134.184H-51.5745ZM-81.6785 165.152C-98.4184 165.152 -111.782 153.204 -111.782 134.184H-113.782C-113.782 154.332 -99.4986 167.152 -81.6785 167.152V165.152ZM-153.39 267.952H-113.646V265.952H-153.39V267.952ZM-112.646 266.952V184.584H-114.646V266.952H-112.646ZM-114.519 185.073C-107.664 197.293 -91.7061 204.88 -74.1905 204.88V202.88C-91.2349 202.88 -106.381 195.491 -112.774 184.095L-114.519 185.073ZM-74.1905 204.88C-56.0551 204.88 -40.5363 198.14 -27.6835 184.995L-29.1135 183.597C-41.6046 196.372 -56.6138 202.88 -74.1905 202.88V204.88ZM-27.6914 185.003C-14.5124 171.824 -8.1025 154.561 -8.1025 133.32H-10.1025C-10.1025 154.127 -16.3646 170.848 -29.1056 183.589L-27.6914 185.003ZM-8.1025 133.32C-8.1025 112.646 -14.5178 95.6745 -27.6914 82.5009L-29.1056 83.9151C-16.3592 96.6615 -10.1025 113.098 -10.1025 133.32H-8.1025ZM-27.6835 82.5089C-40.5363 69.3639 -56.0551 62.624 -74.1905 62.624V64.624C-56.6138 64.624 -41.6046 71.1321 -29.1135 83.9071L-27.6835 82.5089ZM-74.1905 62.624C-91.695 62.624 -107.671 69.917 -114.528 82.7363L-112.765 83.6796C-106.374 71.731 -91.2459 64.624 -74.1905 64.624V62.624ZM-112.646 83.208V66.504H-114.646V83.208H-112.646ZM-113.646 65.504H-153.39V67.504H-113.646V65.504ZM-154.39 66.504V266.952H-152.39V66.504H-154.39ZM108.564 156.648L109.128 155.822L108.359 155.297L107.78 156.027L108.564 156.648ZM46.0675 146.856V145.856H44.9209L45.0768 146.992L46.0675 146.856ZM144.564 146.856V147.856H145.503L145.562 146.918L144.564 146.856ZM125.268 83.496L124.553 84.1953L124.56 84.2031L124.568 84.2108L125.268 83.496ZM26.1955 82.92L25.5039 82.1977L25.5039 82.1977L26.1955 82.92ZM26.1955 184.296L25.496 185.011L25.5039 185.018L26.1955 184.296ZM137.652 176.52L138.477 177.084L139.041 176.258L138.216 175.694L137.652 176.52ZM46.6435 121.8L45.664 121.599L45.417 122.8H46.6435V121.8ZM104.82 121.8V122.8H105.96L105.811 121.669L104.82 121.8ZM107.78 156.027C101.382 164.094 91.9052 168.32 79.1875 168.32V170.32C92.3898 170.32 102.497 165.906 109.347 157.269L107.78 156.027ZM79.1875 168.32C63.5424 168.32 48.9717 160.661 47.0582 146.72L45.0768 146.992C47.1953 162.427 63.1526 170.32 79.1875 170.32V168.32ZM46.0675 147.856H144.564V145.856H46.0675V147.856ZM145.562 146.918C145.848 142.328 146.14 138.256 146.14 134.472H144.14C144.14 138.176 143.855 142.168 143.565 146.794L145.562 146.918ZM146.14 134.472C146.14 113.218 139.434 95.9552 125.967 82.7812L124.568 84.2108C137.597 96.9568 144.14 113.678 144.14 134.472H146.14ZM125.982 82.7967C112.821 69.343 96.1412 62.624 76.3075 62.624V64.624C95.6418 64.624 111.794 71.153 124.553 84.1953L125.982 82.7967ZM76.3075 62.624C56.2006 62.624 39.2419 69.0443 25.5039 82.1977L26.8871 83.6423C40.2212 70.8756 56.6705 64.624 76.3075 64.624V62.624ZM25.5039 82.1977C11.7467 95.3695 5.03551 112.347 5.03551 133.32H7.03551C7.03551 112.821 13.5723 96.3905 26.8871 83.6423L25.5039 82.1977ZM5.03551 133.32C5.03551 154.291 11.745 171.552 25.496 185.011L26.895 183.581C13.574 170.544 7.03551 153.821 7.03551 133.32H5.03551ZM25.5039 185.018C39.2343 198.164 56.1895 204.88 76.3075 204.88V202.88C56.6816 202.88 40.2287 196.348 26.8871 183.574L25.5039 185.018ZM76.3075 204.88C105.045 204.88 125.855 195.577 138.477 177.084L136.826 175.956C124.68 193.751 104.594 202.88 76.3075 202.88V204.88ZM138.216 175.694L109.128 155.822L107.999 157.474L137.087 177.346L138.216 175.694ZM47.623 122.001C50.6723 107.171 63.6969 99.7609 76.5928 99.796C89.4889 99.831 101.895 107.298 103.828 121.931L105.811 121.669C103.712 105.774 90.1981 97.833 76.5982 97.796C62.9982 97.759 48.9507 105.613 45.664 121.599L47.623 122.001ZM104.82 120.8H46.6435V122.8H104.82V120.8ZM254.811 201H253.811V202H254.811V201ZM294.843 201V202H295.843V201H294.843ZM206.715 86.088H205.715L207.598 86.5576L206.715 86.088ZM206.715 66.504H207.715V65.504H206.715V66.504ZM166.683 66.504V65.504H165.683V66.504H166.683ZM166.683 201H165.683V202H166.683V201ZM206.715 201V202H207.715V201H206.715ZM207.715 129.864C207.715 120.927 209.774 114.37 213.685 110.051C217.578 105.751 223.461 103.504 231.483 103.504V101.504C223.09 101.504 216.588 103.865 212.202 108.709C207.833 113.534 205.715 120.657 205.715 129.864H207.715ZM231.483 103.504C238.305 103.504 243.847 105.794 247.695 110.084C251.554 114.387 253.811 120.819 253.811 129.288H255.811C255.811 120.477 253.461 113.517 249.184 108.748C244.895 103.966 238.774 101.504 231.483 101.504V103.504ZM253.811 129.288V201H255.811V129.288H253.811ZM254.811 202H294.843V200H254.811V202ZM295.843 201V120.648H293.843V201H295.843ZM295.843 120.648C295.843 101.638 291.273 87.1109 282.633 77.3261C273.975 67.5216 261.361 62.624 245.595 62.624V64.624C260.934 64.624 272.943 69.3744 281.134 78.6499C289.341 87.9451 293.843 101.93 293.843 120.648H295.843ZM245.595 62.624C229.417 62.624 213.22 71.7288 205.832 85.6184L207.598 86.5576C214.61 73.3752 230.093 64.624 245.595 64.624V62.624ZM207.715 86.088V66.504H205.715V86.088H207.715ZM206.715 65.504H166.683V67.504H206.715V65.504ZM165.683 66.504V201H167.683V66.504H165.683ZM166.683 202H206.715V200H166.683V202ZM207.715 201V129.864H205.715V201H207.715ZM495.395 201H494.395V202H495.395V201ZM535.139 201V202H536.139V201H535.139ZM442.979 87.528L442.075 87.9554L442.861 89.6196L443.829 88.0538L442.979 87.528ZM364.643 86.088H363.643L365.559 86.4888L364.643 86.088ZM364.643 66.504H365.643V65.504H364.643V66.504ZM324.611 66.504V65.504H323.611V66.504H324.611ZM324.611 201H323.611V202H324.611V201ZM364.643 201V202H365.643V201H364.643ZM410.147 128.424H411.147V128.415L411.147 128.406L410.147 128.424ZM410.147 201H409.147V202H410.147V201ZM450.179 201V202H451.179V201H450.179ZM473.219 103.504C479.282 103.504 484.544 105.839 488.303 110.179C492.071 114.529 494.395 120.974 494.395 129.288H496.395C496.395 120.61 493.966 113.663 489.815 108.869C485.654 104.065 479.828 101.504 473.219 101.504V103.504ZM494.395 129.288V201H496.395V129.288H494.395ZM495.395 202H535.139V200H495.395V202ZM536.139 201V124.68H534.139V201H536.139ZM536.139 124.68C536.139 104.517 531.28 88.9872 522.178 78.4851C513.058 67.9614 499.796 62.624 483.299 62.624V64.624C499.345 64.624 512.004 69.7986 520.667 79.7949C529.349 89.8128 534.139 104.811 534.139 124.68H536.139ZM483.299 62.624C465.92 62.624 452.08 70.9035 442.128 87.0022L443.829 88.0538C453.461 72.4725 466.694 64.624 483.299 64.624V62.624ZM443.883 87.1006C440.054 79.002 434.439 72.9339 427.041 68.9019C419.656 64.8769 410.552 62.912 399.779 62.912V64.912C410.318 64.912 419.07 66.835 426.084 70.6581C433.086 74.4741 438.415 80.214 442.075 87.9554L443.883 87.1006ZM399.779 62.912C384.445 62.912 369.949 71.4644 363.727 85.6872L365.559 86.4888C371.432 73.0636 385.161 64.912 399.779 64.912V62.912ZM365.643 86.088V66.504H363.643V86.088H365.643ZM364.643 65.504H324.611V67.504H364.643V65.504ZM323.611 66.504V201H325.611V66.504H323.611ZM324.611 202H364.643V200H324.611V202ZM365.643 201V129.864H363.643V201H365.643ZM365.643 129.864C365.643 120.375 368.05 113.815 371.961 109.631C375.865 105.456 381.401 103.504 387.971 103.504V101.504C381.004 101.504 374.877 103.584 370.5 108.265C366.132 112.937 363.643 120.057 363.643 129.864H365.643ZM387.971 103.504C393.884 103.504 399.081 105.835 402.847 110.08C406.619 114.332 409.006 120.568 409.147 128.442L411.147 128.406C410.999 120.152 408.49 113.428 404.343 108.752C400.188 104.069 394.441 101.504 387.971 101.504V103.504ZM409.147 128.424V201H411.147V128.424H409.147ZM410.147 202H450.179V200H410.147V202ZM451.179 201V129.864H449.179V201H451.179ZM451.179 129.864C451.179 120.804 453.444 114.232 457.262 109.936C461.066 105.657 466.53 103.504 473.219 103.504V101.504C466.084 101.504 460.027 103.815 455.767 108.608C451.522 113.384 449.179 120.492 449.179 129.864H451.179ZM675.831 184.008L675.14 183.286L675.14 183.286L675.831 184.008ZM675.831 82.92L676.523 82.1977L676.523 82.1977L675.831 82.92ZM576.759 82.92L576.068 82.1977L576.068 82.1977L576.759 82.92ZM576.759 184.008L577.451 183.286L577.451 183.286L576.759 184.008ZM626.295 163.136C609.849 163.136 597.055 151.193 597.055 133.32H595.055C595.055 152.311 608.757 165.136 626.295 165.136V163.136ZM597.055 133.32C597.055 116.304 609.856 103.792 626.295 103.792V101.792C608.751 101.792 595.055 115.2 595.055 133.32H597.055ZM626.295 103.792C642.747 103.792 655.823 116.317 655.823 133.32H657.823C657.823 115.187 643.827 101.792 626.295 101.792V103.792ZM655.823 133.32C655.823 151.187 643.036 163.136 626.295 163.136V165.136C644.115 165.136 657.823 152.317 657.823 133.32H655.823ZM676.523 184.73C690.276 171.563 697.279 154.3 697.279 133.32H695.279C695.279 153.812 688.459 170.533 675.14 183.286L676.523 184.73ZM697.279 133.32C697.279 112.336 690.273 95.3625 676.523 82.1977L675.14 83.6423C688.462 96.3975 695.279 112.832 695.279 133.32H697.279ZM676.523 82.1977C662.789 69.0485 646.121 62.624 626.295 62.624V64.624C645.638 64.624 661.801 70.8714 675.14 83.6423L676.523 82.1977ZM626.295 62.624C606.47 62.624 589.801 69.0485 576.068 82.1977L577.451 83.6423C590.789 70.8714 606.953 64.624 626.295 64.624V62.624ZM576.068 82.1977C562.31 95.3695 555.599 112.347 555.599 133.32H557.599C557.599 112.821 564.136 96.3905 577.451 83.6423L576.068 82.1977ZM555.599 133.32C555.599 154.289 562.308 171.556 576.068 184.73L577.451 183.286C564.139 170.54 557.599 153.823 557.599 133.32H555.599ZM576.068 184.73C589.801 197.879 606.47 204.304 626.295 204.304V202.304C606.953 202.304 590.789 196.057 577.451 183.286L576.068 184.73ZM626.295 204.304C646.121 204.304 662.789 197.879 676.523 184.73L675.14 183.286C661.801 196.057 645.638 202.304 626.295 202.304V204.304Z" fill="white"/>
</svg>

<svg width="375" height="267" fill="none" xmlns="http://www.w3.org/2000/svg"><path opacity=".3" d="M-319.328 142.824v-1h-1v1h1zm19.872 44.352l-.656.755.009.008.647-.763zm112.608-8.64l-.788-.616-.001.002.789.614zm10.944-32.544l-1-.03v.007l1 .023zm-54.432-59.904l-.302.953.013.004.013.004.276-.961zm-23.616-7.488l.302-.953-.013-.005-.014-.004-.275.962zM-224 61.032h-1v1h1v-1zm42.048 0v1h1v-1h-1zM-200.96 16.68l-.662.75.008.007.654-.757zm-96.768.288l.645.764.01-.008-.655-.756zm31.68 99.648l-.297.955.015.005.015.004.267-.964zm23.904 6.624l.281-.96-.014-.004-.267.964zm23.904 22.464l-1-.029v.006l1 .023zm-58.752-2.88l.998-.064-.06-.936h-.938v1zm-43.336 0c0 18.425 6.743 33.391 20.216 45.107l1.312-1.51c-13.023-11.324-19.528-25.734-19.528-43.597h-2zm20.225 45.115c13.465 11.415 30.99 17.229 52.775 17.229v-2c-21.415 0-38.45-5.706-51.481-16.755l-1.294 1.526zm52.775 17.229c24.673 0 46.907-7.552 61.269-26.018l-1.578-1.228c-13.862 17.822-35.404 25.246-59.691 25.246v2zm61.268-26.016c7.352-9.411 10.864-20.572 11.156-33.137l-2-.046c-.284 12.203-3.684 22.93-10.732 31.951l1.576 1.232zm11.156-33.13c.439-14.78-3.959-27.35-13.219-37.566-9.239-10.192-23.254-17.97-41.937-23.33l-.552 1.923c18.469 5.297 32.102 12.927 41.007 22.751 8.884 9.8 13.126 21.854 12.701 36.162l2 .06zm-55.13-60.887l-23.616-7.488-.604 1.906 23.616 7.488.604-1.906zm-23.643-7.497c-6.977-1.993-12.136-4.599-15.538-7.795-3.373-3.168-5.049-6.94-5.049-11.403h-2c0 5.04 1.924 9.333 5.679 12.86 3.726 3.5 9.223 6.223 16.358 8.261l.55-1.923zm-20.587-19.198c0-10.748 9.96-18.872 24.632-18.872v-2c-15.28 0-26.632 8.58-26.632 20.872h2zm24.632-18.872c8.033 0 14.178 2.183 18.303 5.899 4.113 3.706 6.329 9.034 6.329 15.565h2c0-7.005-2.392-12.908-6.991-17.051-4.587-4.132-11.258-6.413-19.641-6.413v2zM-224 62.032h42.048v-2H-224v2zm43.048-1c0-18.975-6.437-33.953-19.354-45.109l-1.308 1.514c12.427 10.732 18.662 25.13 18.662 43.595h2zm-19.346-45.101C-212.899 4.795-229.278-.736-249.056-.736v2c19.39 0 35.267 5.413 47.434 16.165l1.324-1.498zM-249.056-.736c-19.494 0-36.155 5.533-49.327 16.948l1.31 1.512c12.748-11.05 28.919-16.46 48.017-16.46v-2zm-49.317 16.94c-13.187 11.136-19.939 25.529-19.939 43.388h2c0-17.276 6.496-31.108 19.229-41.86l-1.29-1.528zm-19.939 43.388c0 13.907 4.326 25.742 13.036 35.444 8.691 9.682 21.689 17.174 38.931 22.535l.594-1.91c-17.03-5.295-29.664-12.635-38.037-21.961-8.354-9.306-12.524-20.654-12.524-34.108h-2zm51.997 57.988l23.904 6.624.534-1.928-23.904-6.624-.534 1.928zm23.89 6.62c9.304 2.719 15.159 5.757 18.654 9.251 3.441 3.441 4.669 7.404 4.531 12.224l2 .058c.15-5.26-1.214-9.793-5.117-13.696-3.849-3.85-10.09-7.004-19.506-9.757l-.562 1.92zm23.185 21.481c-.136 6.004-2.92 10.977-7.758 14.477-4.862 3.517-11.84 5.57-20.33 5.57v2c8.79 0 16.212-2.123 21.502-5.95 5.314-3.844 8.434-9.383 8.586-16.051l-2-.046zm-28.088 20.047c-8.882 0-15.838-2.535-20.664-6.638-4.822-4.098-7.586-9.816-8.002-16.33l-1.996.128c.448 7.022 3.444 13.256 8.702 17.726 5.254 4.465 12.698 7.114 21.96 7.114v-2zm-29.664-23.904h-42.336v2h42.336v-2zm123.602 125.128h-1v1h1v-1zm39.744 0v1h1v-1h-1zm0-82.368l.872-.489-1.872-3.338v3.827h1zm85.248-.288l-.708-.707-.007.008.715.699zm0-101.088l-.715.7.007.007.708-.707zm-85.248 0h-1l1.881.472-.881-.472zm0-16.704h1v-1h-1v1zm-39.744 0v-1h-1v1h1zm41.608 67.68c0-18.198 13.405-31.544 30.103-31.544v-2c-17.861 0-32.103 14.302-32.103 33.544h2zm30.103-31.544c16.71 0 30.105 12.782 30.105 31.544h2c0-19.83-14.254-33.544-32.105-33.544v2zm30.105 31.544c0 18.174-13.383 30.968-30.105 30.968v2c17.839 0 32.105-13.702 32.105-32.968h-2zm-30.105 30.968c-16.74 0-30.103-11.948-30.103-30.968h-2c0 20.148 14.283 32.968 32.103 32.968v-2zm-71.711 102.8h39.744v-2h-39.744v2zm40.744-1v-82.368h-2v82.368h2zm-1.873-81.879c6.855 12.22 22.813 19.807 40.329 19.807v-2c-17.045 0-32.191-7.389-38.584-18.785l-1.745.978zm40.329 19.807c18.135 0 33.654-6.74 46.507-19.885l-1.43-1.398c-12.492 12.775-27.5 19.283-45.078 19.283v2zm46.499-19.877c13.179-13.179 19.588-30.442 19.588-51.683h-2c0 20.807-6.262 37.528-19.003 50.269l1.415 1.414zm19.588-51.683c0-20.674-6.415-37.645-19.588-50.82l-1.415 1.415c12.747 12.746 19.004 29.183 19.004 49.405h2zm-19.58-50.811c-12.853-13.145-28.372-19.885-46.508-19.885v2c17.577 0 32.586 6.508 45.078 19.283l1.43-1.398zm-46.508-19.885c-17.504 0-33.48 7.293-40.337 20.112l1.763.944c6.391-11.949 21.52-19.056 38.575-19.056v-2zm-38.455 20.584V66.504h-2v16.704h2zm-1-17.704h-39.744v2h39.744v-2zm-40.744 1v200.448h2V66.504h-2zm262.954 90.144l.564-.826-.769-.525-.579.73.784.621zm-62.496-9.792v-1H44.92l.156 1.136.99-.136zm98.496 0v1h.939l.059-.938-.998-.062zm-19.296-63.36l-.715.7.007.007.008.008.7-.715zm-99.073-.576l-.691-.722.691.722zm0 101.376l-.699.715.008.007.691-.722zm111.457-7.776l.825.564.564-.826-.825-.564-.564.826zM46.644 121.8l-.98-.201-.247 1.201h1.227v-1zm58.176 0v1h1.14l-.149-1.131-.991.131zm2.96 34.227c-6.398 8.067-15.875 12.293-28.593 12.293v2c13.203 0 23.31-4.414 30.16-13.051l-1.567-1.242zM79.187 168.32c-15.645 0-30.215-7.659-32.129-21.6l-1.981.272c2.118 15.435 18.076 23.328 34.11 23.328v-2zm-33.12-20.464h98.497v-2H46.068v2zm99.495-.938c.286-4.59.578-8.662.578-12.446h-2c0 3.704-.285 7.696-.575 12.322l1.997.124zm.578-12.446c0-21.254-6.706-38.517-20.173-51.69l-1.399 1.429c13.029 12.746 19.572 29.467 19.572 50.261h2zm-20.158-51.675c-13.161-13.454-29.84-20.173-49.674-20.173v2c19.334 0 35.486 6.529 48.245 19.571l1.429-1.398zM76.308 62.624c-20.107 0-37.066 6.42-50.804 19.574l1.383 1.444c13.334-12.766 29.783-19.018 49.42-19.018v-2zM25.504 82.198C11.747 95.37 5.036 112.347 5.036 133.32h2c0-20.499 6.536-36.93 19.851-49.678l-1.383-1.444zM5.036 133.32c0 20.971 6.709 38.232 20.46 51.691l1.399-1.43c-13.321-13.037-19.86-29.76-19.86-50.261h-2zm20.468 51.698c13.73 13.146 30.686 19.862 50.803 19.862v-2c-19.625 0-36.078-6.532-49.42-19.306l-1.383 1.444zm50.803 19.862c28.738 0 49.548-9.303 62.17-27.796l-1.651-1.128c-12.146 17.795-32.232 26.924-60.518 26.924v2zm61.909-29.186l-29.088-19.872-1.129 1.652 29.088 19.872 1.129-1.652zm-90.593-53.693c3.05-14.83 16.074-22.24 28.97-22.205 12.896.035 25.302 7.502 27.235 22.135l1.983-.262c-2.099-15.895-15.613-23.836-29.213-23.873-13.6-.037-27.647 7.817-30.934 23.803l1.959.402zm57.197-1.201H46.644v2h58.176v-2zM254.811 201h-1v1h1v-1zm40.032 0v1h1v-1h-1zM206.715 86.088h-1l1.883.47-.883-.47zm0-19.584h1v-1h-1v1zm-40.032 0v-1h-1v1h1zm0 134.496h-1v1h1v-1zm40.032 0v1h1v-1h-1zm1-71.136c0-8.937 2.059-15.494 5.97-19.813 3.893-4.3 9.776-6.547 17.798-6.547v-2c-8.393 0-14.895 2.361-19.281 7.205-4.369 4.825-6.487 11.948-6.487 21.155h2zm23.768-26.36c6.822 0 12.364 2.29 16.212 6.58 3.859 4.303 6.116 10.735 6.116 19.204h2c0-8.811-2.35-15.771-6.627-20.54-4.289-4.782-10.41-7.244-17.701-7.244v2zm22.328 25.784V201h2v-71.712h-2zm1 72.712h40.032v-2h-40.032v2zm41.032-1v-80.352h-2V201h2zm0-80.352c0-19.01-4.57-33.537-13.21-43.322-8.658-9.804-21.272-14.702-37.038-14.702v2c15.339 0 27.348 4.75 35.539 14.026 8.207 9.295 12.709 23.28 12.709 41.998h2zm-50.248-58.024c-16.178 0-32.375 9.105-39.763 22.994l1.766.94c7.012-13.183 22.495-21.934 37.997-21.934v-2zm-37.88 23.464V66.504h-2v19.584h2zm-1-20.584h-40.032v2h40.032v-2zm-41.032 1V201h2V66.504h-2zm1 135.496h40.032v-2h-40.032v2zm41.032-1v-71.136h-2V201h2zm287.68 0h-1v1h1v-1zm39.744 0v1h1v-1h-1zm-92.16-113.472l-.904.427.786 1.665.968-1.566-.85-.526zm-78.336-1.44h-1l1.916.4-.916-.4zm0-19.584h1v-1h-1v1zm-40.032 0v-1h-1v1h1zm0 134.496h-1v1h1v-1zm40.032 0v1h1v-1h-1zm45.504-72.576h1v-.018l-1 .018zm0 72.576h-1v1h1v-1zm40.032 0v1h1v-1h-1zm23.04-97.496c6.063 0 11.325 2.335 15.084 6.675 3.768 4.35 6.092 10.795 6.092 19.109h2c0-8.678-2.429-15.625-6.58-20.419-4.161-4.804-9.987-7.365-16.596-7.365v2zm21.176 25.784V201h2v-71.712h-2zm1 72.712h39.744v-2h-39.744v2zm40.744-1v-76.32h-2V201h2zm0-76.32c0-20.163-4.859-35.693-13.961-46.195-9.12-10.524-22.382-15.861-38.879-15.861v2c16.046 0 28.705 5.175 37.368 15.17 8.682 10.019 13.472 25.017 13.472 44.886h2zm-52.84-62.056c-17.379 0-31.219 8.28-41.171 24.378l1.701 1.052c9.632-15.582 22.865-23.43 39.47-23.43v-2zm-39.416 24.477c-3.829-8.099-9.444-14.167-16.842-18.2-7.385-4.024-16.489-5.989-27.262-5.989v2c10.539 0 19.291 1.923 26.305 5.746 7.002 3.816 12.331 9.556 15.991 17.297l1.808-.854zm-44.104-24.189c-15.334 0-29.83 8.552-36.052 22.775l1.832.802c5.873-13.425 19.602-21.577 34.22-21.577v-2zm-34.136 23.176V66.504h-2v19.584h2zm-1-20.584h-40.032v2h40.032v-2zm-41.032 1V201h2V66.504h-2zm1 135.496h40.032v-2h-40.032v2zm41.032-1v-71.136h-2V201h2zm0-71.136c0-9.489 2.407-16.049 6.318-20.233 3.904-4.175 9.44-6.127 16.01-6.127v-2c-6.967 0-13.094 2.08-17.471 6.761-4.368 4.672-6.857 11.792-6.857 21.599h2zm22.328-26.36c5.913 0 11.11 2.331 14.876 6.576 3.772 4.252 6.159 10.488 6.3 18.362l2-.036c-.148-8.254-2.657-14.978-6.804-19.654-4.155-4.683-9.902-7.248-16.372-7.248v2zm21.176 24.92V201h2v-72.576h-2zm1 73.576h40.032v-2h-40.032v2zm41.032-1v-71.136h-2V201h2zm0-71.136c0-9.06 2.265-15.632 6.083-19.928 3.804-4.279 9.268-6.432 15.957-6.432v-2c-7.135 0-13.192 2.311-17.452 7.104-4.245 4.776-6.588 11.884-6.588 21.256h2zm224.652 54.144l-.691-.722.691.722zm0-101.088l.692-.722-.692.722zm-99.072 0l-.691-.722.691.722zm0 101.088l.692-.722-.692.722zm49.536-20.872c-16.446 0-29.24-11.943-29.24-29.816h-2c0 18.991 13.702 31.816 31.24 31.816v-2zm-29.24-29.816c0-17.016 12.801-29.528 29.24-29.528v-2c-17.544 0-31.24 13.408-31.24 31.528h2zm29.24-29.528c16.452 0 29.528 12.525 29.528 29.528h2c0-18.133-13.996-31.528-31.528-31.528v2zm29.528 29.528c0 17.867-12.787 29.816-29.528 29.816v2c17.82 0 31.528-12.819 31.528-31.816h-2zm20.7 51.41c13.753-13.167 20.756-30.43 20.756-51.41h-2c0 20.492-6.82 37.213-20.139 49.966l1.383 1.444zm20.756-51.41c0-20.984-7.006-37.957-20.756-51.122l-1.383 1.444c13.322 12.755 20.139 29.19 20.139 49.678h2zm-20.756-51.122c-13.734-13.15-30.402-19.574-50.228-19.574v2c19.343 0 35.506 6.247 48.845 19.018l1.383-1.444zm-50.228-19.574c-19.825 0-36.494 6.425-50.227 19.574l1.383 1.444c13.338-12.77 29.502-19.018 48.844-19.018v-2zm-50.227 19.574c-13.758 13.172-20.469 30.149-20.469 51.122h2c0-20.499 6.537-36.93 19.852-49.678l-1.383-1.444zm-20.469 51.122c0 20.969 6.709 38.236 20.469 51.41l1.383-1.444c-13.312-12.746-19.852-29.463-19.852-49.966h-2zm20.469 51.41c13.733 13.149 30.402 19.574 50.227 19.574v-2c-19.342 0-35.506-6.247-48.844-19.018l-1.383 1.444zm50.227 19.574c19.826 0 36.494-6.425 50.228-19.574l-1.383-1.444c-13.339 12.771-29.502 19.018-48.845 19.018v2z" fill="#fff"/></svg>
